X:1
T:New Land, The
C:Otis Tomas
R:waltz
Q:250
M:3/4
K:F 
F3 E FG|Ac3cd|c3 AG2|F3 G (3AGF|B3 A GA|Bd3df|d3 BA2|G3 A (3BAG|
A3 F AF|Ac3 fg|a3 g f2|d3 e fg|a3 g f2|ge3 cA|Add2c2|1 d4 z2:|2 d3 efg|]
a3 g ab|a2g2f2|B3 A Bc|B2c2d2|g3 f ga|g2f2e2|A3 G AB|A2B2c2|
f3 e fg|f2e2d2|G3 F GA|G2F2D2|c/2A7/2F2|G/2E7/2C2|D3 E FE|1 D3 efg:|2 D4 DE|]
</abc>
